resources/vectors/malmal_community_drawing.svg

<?xml version="1.0" encoding="UTF-8" standalone="no"?>
<svg
   xml:space="preserve"
   width="192"
   height="192"
   version="1.1"
   id="svg6"
   sodipodi:docname="malmal_community_drawing.svg"
   inkscape:version="1.2.2 (b0a8486541, 2022-12-01)"
   inkscape:export-filename="malmal_community_drawing.png"
   inkscape:export-xdpi="96"
   inkscape:export-ydpi="96"
   xmlns:inkscape="http://www.inkscape.org/namespaces/inkscape"
   xmlns:sodipodi="http://sodipodi.sourceforge.net/DTD/sodipodi-0.dtd"
   xmlns="http://www.w3.org/2000/svg"
   xmlns:svg="http://www.w3.org/2000/svg"><defs
     id="defs10" /><sodipodi:namedview
     id="namedview8"
     pagecolor="#505050"
     bordercolor="#eeeeee"
     borderopacity="1"
     inkscape:showpageshadow="0"
     inkscape:pageopacity="0"
     inkscape:pagecheckerboard="0"
     inkscape:deskcolor="#d1d1d1"
     showgrid="false"
     inkscape:zoom="1.7383042"
     inkscape:cx="1.1505466"
     inkscape:cy="136.05214"
     inkscape:window-width="1884"
     inkscape:window-height="1055"
     inkscape:window-x="36"
     inkscape:window-y="0"
     inkscape:window-maximized="1"
     inkscape:current-layer="svg6" /><circle
     style="fill:#9abeff;stroke-width:2.67549;stroke-linecap:round;stroke-linejoin:round;paint-order:stroke fill markers"
     id="path345"
     cx="96"
     cy="96"
     r="88" /><path
     id="path4"
     style="fill:#fefefe;fill-opacity:1"
     d="M 150.32812 26.804688 L 105.83008 120.02148 C 104.02708 123.92848 104.16607 129.07132 107.16406 132.19531 A 10.56 10.56 0 0 0 103.03711 132.26367 C 100.71411 132.77967 97.614373 134.31103 95.984375 136.08203 C 92.407379 139.97203 93.063607 145.11346 90.599609 149.43945 C 85.793614 157.87544 66.916572 146.61412 61.142578 142.32812 C 46.638593 131.55614 35.560547 115.52156 35.560547 97.642578 C 35.560547 67.845608 62.910424 43.689453 96.650391 43.689453 C 109.55138 43.689453 121.51692 47.225912 131.37891 53.253906 L 136.53125 42.457031 C 124.99126 35.658038 111.19422 31.699219 96.365234 31.699219 C 55.846275 31.700219 23 61.223615 23 97.642578 C 23 121.59655 39.792882 147.43576 62.755859 155.96875 C 72.05385 159.42375 81.868713 161.73927 91.845703 161.19727 A 48.044 48.044 0 0 0 95.798828 160.82422 C 102.00382 159.97822 108.49114 157.78546 112.49414 152.98047 C 115.88414 148.91247 117.69226 142.05903 114.82227 137.33203 A 10.593 10.593 0 0 0 112.7207 134.85547 C 117.6387 135.50047 121.67947 132.39956 123.60547 128.22656 L 162.89453 38.863281 A 88 88 0 0 0 150.32812 26.804688 z M 113.48047 50.763672 C 107.8213 50.62025 102.88579 52.878489 98.068359 57.962891 C 92.929365 63.386885 90.645739 75.375736 94.927734 76.802734 C 99.20973 78.229733 102.3495 75.089795 104.0625 73.091797 C 105.7745 71.091799 109.77148 69.665957 109.77148 73.376953 C 109.77148 77.087949 102.0642 78.517361 97.783203 79.943359 C 93.500207 81.370358 91.787109 83.36971 91.787109 90.220703 C 91.787109 97.070696 94.071099 95.644629 99.496094 99.640625 C 104.91909 103.63762 105.49061 105.63424 104.34961 108.49023 C 103.20861 111.34423 104.0625 112.19922 104.0625 112.19922 L 129.4707 56.820312 C 129.4707 56.820312 121.76004 51.395218 114.62305 50.824219 C 114.2397 50.79427 113.85979 50.773689 113.48242 50.763672 L 113.48047 50.763672 z M 59.367188 59.833984 C 58.236189 59.890984 57.724609 60.4375 57.724609 60.4375 C 57.724609 60.4375 50.397198 65.099573 44.783203 75.851562 C 38.863209 87.193551 38.88555 91.647643 42.310547 93.931641 C 45.735543 96.215638 48.208704 96.786959 48.970703 102.87695 C 49.730702 108.96595 49.732721 109.728 51.636719 111.25 C 53.540717 112.772 48.968311 114.29413 47.445312 116.57812 C 45.923314 118.86112 45.925397 122.6683 52.775391 130.2793 C 59.626384 137.89129 63.432939 139.79688 65.335938 139.79688 C 67.240936 139.79688 66.098787 133.32409 71.425781 127.99609 C 76.754776 122.6661 78.277279 116.95662 75.613281 112.39062 C 72.949284 107.82363 67.240385 102.11565 61.150391 106.68164 C 55.060397 111.24964 53.917109 113.15215 53.537109 105.16016 C 53.15711 97.166164 56.9636 91.458106 63.433594 88.412109 C 69.903587 85.367112 73.912937 87.6964 73.710938 81.941406 C 73.520938 76.516412 72.392776 69.584182 67.050781 64.242188 C 63.303785 60.495191 60.821186 59.760984 59.367188 59.833984 z M 158.62695 62.755859 L 152.71875 76.195312 C 155.94675 82.768306 157.74023 90.018633 157.74023 97.640625 C 157.74023 97.640625 157.93032 110.10864 153.36133 120.76562 C 148.79433 131.42161 135.85329 145.50455 130.9043 149.31055 C 127.4093 151.99854 130.90595 152.35526 139.46094 148.32227 C 159.04392 139.08727 169.73047 119.1756 169.73047 97.640625 C 169.72747 84.830638 165.65995 72.875849 158.62695 62.755859 z M 150.88086 79.369141 L 143.74219 95.355469 C 143.74219 95.355469 144.31382 94.216689 148.88281 95.929688 C 153.44981 97.641686 155.16211 97.927734 155.16211 97.927734 C 155.16211 97.927734 155.44785 86.791133 150.88086 79.369141 z M 93.310547 146.46094 C 94.068015 152.35524 90.267578 154.64062 90.267578 154.64062 C 93.693575 155.59062 99.78125 155.40039 99.78125 155.40039 C 98.068252 157.11339 95.595703 158.06445 95.595703 158.06445 C 98.069701 158.44545 104.1582 157.11523 104.1582 157.11523 C 96.545211 160.92023 85.888672 159.58789 85.888672 159.58789 C 88.554669 159.58789 91.978516 158.44336 91.978516 158.44336 C 88.362519 158.44336 83.603516 156.35352 83.603516 156.35352 C 87.790511 157.11551 91.787109 155.7793 91.787109 155.7793 L 89.693359 155.58984 C 85.506364 155.39984 82.367188 153.59375 82.367188 153.59375 C 92.155838 154.82832 93.307892 146.48027 93.310547 146.46094 z " /></svg>

<svg xmlns="http://www.w3.org/2000/svg" xml:space="preserve" width="192" height="192"><rect width="153" height="153" x="19.5" y="19.5" rx="10" ry="10" style="fill:#99bdfe;fill-opacity:1;fill-rule:evenodd;stroke:none;stroke-opacity:1;opacity:1"/><path d="M153.814 19.5 105.83 120.021c-1.803 3.907-1.664 9.05 1.334 12.174a10.56 10.56 0 0 0-4.127.069c-2.323.516-5.423 2.047-7.053 3.818-3.577 3.89-2.92 9.031-5.384 13.357-4.806 8.436-23.683-2.824-29.457-7.11-14.504-10.772-25.582-26.807-25.582-44.686 0-29.797 27.35-53.954 61.09-53.954 12.901 0 24.866 3.537 34.728 9.565l5.152-10.797c-11.54-6.799-25.337-10.758-40.166-10.758C55.846 31.7 23 61.224 23 97.643c0 23.954 16.793 49.793 39.756 58.326 9.298 3.455 19.113 5.77 29.09 5.228a48.044 48.044 0 0 0 3.953-.373c6.205-.846 12.692-3.039 16.695-7.844 3.39-4.068 5.198-10.921 2.328-15.648a10.593 10.593 0 0 0-2.101-2.477c4.918.645 8.958-2.455 10.884-6.628l46.34-105.399c-.054-.06-.108-.122-.164-.182a14.22 14.22 0 0 0-.416-.417c-.162-.154-.325-.31-.498-.452A9.966 9.966 0 0 0 162.5 19.5h-8.686zm-40.332 31.264c-5.66-.144-10.596 2.114-15.414 7.199-5.139 5.424-7.422 17.413-3.14 18.84 4.282 1.427 7.422-1.713 9.135-3.711 1.712-2 5.708-3.426 5.708.285 0 3.711-7.707 5.14-11.988 6.566-4.283 1.427-5.996 3.427-5.996 10.278 0 6.85 2.285 5.424 7.71 9.42 5.423 3.997 5.994 5.994 4.853 8.85-1.141 2.854-.287 3.708-.287 3.708L129.47 56.82s-7.709-5.425-14.846-5.996c-.384-.03-.765-.05-1.143-.06zm-54.115 9.07c-1.131.057-1.642.603-1.642.603S50.397 65.1 44.783 75.852c-5.92 11.342-5.897 15.796-2.472 18.08 3.425 2.284 5.898 2.855 6.66 8.945.76 6.089.762 6.851 2.666 8.373 1.904 1.522-2.669 3.044-4.192 5.328-1.522 2.283-1.52 6.09 5.33 13.701 6.851 7.612 10.657 9.518 12.56 9.518 1.905 0 .763-6.472 6.09-11.8 5.329-5.33 6.852-11.04 4.188-15.606-2.664-4.567-8.373-10.276-14.463-5.71-6.09 4.568-7.233 6.472-7.613-1.52-.38-7.994 3.427-13.703 9.897-16.749 6.47-3.045 10.479-.715 10.277-6.47-.19-5.425-1.318-12.358-6.66-17.7-3.747-3.747-6.23-4.481-7.684-4.408zm99.26 2.922-5.908 13.44c3.228 6.573 5.021 13.823 5.021 21.445 0 0 .19 12.468-4.379 23.125-4.567 10.656-17.508 24.739-22.457 28.545-3.495 2.688.002 3.044 8.557-.989 19.583-9.235 30.27-29.146 30.27-50.681-.003-12.81-4.071-24.765-11.104-34.885zM150.88 79.37l-7.137 15.986s.57-1.14 5.139.573c4.567 1.712 6.28 1.998 6.28 1.998s.285-11.135-4.282-18.557zm-57.569 67.086c.761 5.899-3.044 8.184-3.044 8.184 3.426.95 9.515.761 9.515.761-1.713 1.713-4.187 2.664-4.187 2.664 2.474.381 8.564-.95 8.564-.95-7.613 3.805-18.27 2.472-18.27 2.472 2.666 0 6.09-1.143 6.09-1.143-3.616 0-8.375-2.091-8.375-2.091 4.187.762 8.184-.573 8.184-.573l-2.094-.19c-4.187-.19-7.326-1.997-7.326-1.997 9.8 1.236 10.944-7.137 10.944-7.137z" style="fill:#fefefe;fill-opacity:1"/></svg>
